X: 21
T: No_118_Hinata_Dance_Song_(n).krn
N: Derived from No_118_Hinata_Dance_Song_(n).krn
%%abc-version 2.0
%%abcx-abcm2ps-target-version 5.9.1 (29 Sep 2008)
%%abc-creator hum2abc beta
%%abcx-conversion-date 2019/03/15 08:38:45
%%humdrum-veritas 1461928244
%%humdrum-veritas-data 3642880247
%%linebreak <none>
%%barnumbers 0
L: 1/8
M: 3/4
K: C clef=bass
[K:clef=bass][M:3/4]CG, (C3/G,/)G,2 [I:setbarnb 2]||  
[M:2/4]CA, (G,3//D,//)D, ||  
[M:3/4]F,(F,/D,/)D,2D, z | 
F,(F,/D,/)C,2C,2 ||  
[M:2/4]G,A, G,D, ||  
[M:3/4]F,(F,/D,/)D,2D, z | 
F,F,/C,/C,2C,2 :|]  



